public/assets/trusts-llama/imf.svg

<svg fill="none" height="11" viewBox="0 0 227 11" width="227" xmlns="http://www.w3.org/2000/svg"><g fill="#fff"><path d="m.480469 9.7927v-9.109839h2.200101v9.109839z"/><path d="m10.5417 9.7927-3.66551-5.95852h-.03867l.05027 5.95852h-2.13437v-9.109839h2.50943l3.65395 5.943049h.0387l-.0542-5.943049h2.1383v9.109839z"/><path d="m18.9204 2.56205v7.23065h-2.1924v-7.23065h-2.5752v-1.879189h7.3466v1.879189z"/><path d="m22.624 9.7927v-9.109839h6.1247v1.852129h-4.0019v1.72839h3.7815v1.7632h-3.7815v1.89079h4.2262v1.87533z"/><path d="m35.5696 9.7927-1.9797-3.59599h-.7501v3.59599h-2.146v-9.109839h3.48c.4292 0 .8584.0464 1.2798.135333.3983.0812.7772.235866 1.1214.456266.3209.21653.5877.5104.7733.85066.2088.40213.3132.85453.2977 1.3108.0155.5568-.1624 1.10199-.5026 1.54666-.3596.43693-.843.75013-1.3882.90093l2.3857 3.90919zm-.0928-6.30265c.0078-.1856-.0386-.36733-.1353-.522-.0851-.13146-.2088-.23586-.348-.30546-.1508-.07734-.3132-.1276-.4794-.1508-.1702-.0232-.3403-.03867-.5104-.03867h-1.1639v2.12279h1.0479c.1856 0 .3712-.01546.5568-.04253.1778-.02707.3518-.0812.5142-.1624.1547-.07733.2861-.18946.3867-.33253.1005-.17013.1469-.3712.1314-.5684z"/><path d="m45.1589 9.7927-3.6694-5.95852h-.0387l.0541 5.95852h-2.1382v-9.109839h2.5094l3.654 5.943049h.0386l-.0502-5.943049h2.1343v9.109839z"/><path d="m55.9467 9.7927-.7076-1.79026h-3.5264l-.6689 1.79026h-2.3934l3.8241-9.109839h2.1343l3.7816 9.109839zm-2.4437-6.68931-1.16 3.12812h2.2929z"/><path d="m62.4081 2.56205v7.23065h-2.2001v-7.23065h-2.5713v-1.879189h7.3466v1.879189z"/><path d="m66.0933 9.7927v-9.109839h2.2155v9.109839z"/><path d="m79.8465 5.19914c0 .67666-.1276 1.34946-.3867 1.97586-.2358.57999-.5877 1.10973-1.0362 1.54666-.4524.42146-.9821.7424-1.5621.95506-1.276.46398-2.6796.46398-3.9556 0-.5838-.21653-1.1174-.55293-1.5698-.98213-.4485-.43693-.8004-.9628-1.0363-1.54666-.259-.6264-.3905-1.29919-.3866-1.97586-.0039-.67666.1276-1.34946.3866-1.97586.2359-.5684.5878-1.07879 1.0363-1.49639.4562-.40987.9898-.7192 1.5698-.9164 1.2799-.448531 2.6757-.448531 3.9556 0 .5838.204933 1.1213.52973 1.5775.9512.4447.42146.8004.93186 1.0363 1.49639.2552.6264.3789 1.29533.3712 1.96813zm-2.3548 0c.0039-.37893-.0618-.754-.1933-1.10586-.116-.3248-.2977-.6264-.5336-.8816-.232-.24747-.5143-.44467-.8236-.58-.3364-.14307-.696-.21653-1.0594-.21267-.7076-.01546-1.3882.26294-1.8792.77333-.2397.25134-.4215.55294-.5336.8816-.1237.35573-.1895.7308-.1856 1.10586-.0039.39054.0619.7772.1933 1.14067.116.32866.2978.63413.5336.89319.2243.25907.5027.464.8159.6032.6766.28227 1.4345.28227 2.1111 0 .3132-.13533.5916-.3364.8236-.58386.2398-.25907.4254-.56067.5452-.8932.1315-.36733.1934-.754.1856-1.14066z"/><path d="m87.236 9.7927-3.6694-5.95852h-.0387l.0542 5.95852h-2.1383v-9.109839h2.5095l3.6539 5.943049h.0387l-.0503-5.943049h2.1344v9.109839z"/><path d="m98.0233 9.7927-.7075-1.79026h-3.5264l-.6689 1.79026h-2.3934l3.824-9.109839h2.1344l3.7815 9.109839zm-2.4437-6.68931-1.1599 3.12812h2.289z"/><path d="m101.465 9.79269v-9.109829h2.215v7.191969h3.523v1.93333z"/><path d="m120.098 9.7927.051-6.44571h-.039l-2.366 6.44571h-1.547l-2.301-6.44571h-.038l.05 6.44571h-2.073v-9.109839h3.132l2.073 5.842509h.05l1.976-5.842509h3.178v9.109839z"/><path d="m133.786 5.19914c0 .67666-.127 1.34946-.386 1.97586-.236.57999-.588 1.10973-1.036 1.54666-.453.42146-.983.7424-1.563.95506-1.276.46398-2.679.46398-3.955 0-.584-.21653-1.118-.55293-1.57-.98213-.449-.43693-.8-.96666-1.036-1.54666-.259-.6264-.391-1.29919-.387-1.97586-.004-.67666.128-1.34946.387-1.97586.236-.56453.587-1.07493 1.036-1.49639.456-.40987.99-.7192 1.57-.9164 1.28-.448531 2.676-.448531 3.955 0 .584.204933 1.122.52973 1.578.9512.445.42146.8.93186 1.036 1.49639.255.6264.379 1.29533.371 1.96813zm-2.354 0c.004-.37893-.062-.754-.194-1.10586-.116-.3248-.297-.6264-.533-.8816-.232-.24747-.515-.44467-.824-.58-.336-.14307-.696-.21653-1.059-.21267-.708-.01546-1.388.26294-1.879.77333-.24.25907-.418.56454-.53.90094-.128.35573-.19.73079-.186 1.10586-.004.39053.062.77719.194 1.14066.116.32867.297.63413.533.8932.228.25133.507.44853.816.58386.677.28227 1.434.28227 2.111 0 .313-.13533.592-.3364.824-.58386.236-.25907.421-.56067.537-.8932.136-.36347.201-.75013.197-1.14066z"/><path d="m141.175 9.7927-3.669-5.95852h-.039l.054 5.95852h-2.138v-9.109839h2.509l3.654 5.943049h.039l-.05-5.943049h2.134v9.109839z"/><path d="m145.745 9.7927v-9.109839h6.109v1.852129h-4.002v1.72839h3.782v1.7632h-3.782v1.89079h4.234v1.87533z"/><path d="m157.651 2.56205v7.23065h-2.2v-7.23065h-2.572v-1.879189h7.347v1.879189z"/><path d="m166.772 9.7927-.708-1.79026h-3.526l-.669 1.79026h-2.393l3.824-9.109839h2.134l3.782 9.109839zm-2.444-6.68931-1.16 3.12812h2.297z"/><path d="m175.089 9.7927-1.976-3.59599h-.75v3.59599h-2.15v-9.109839h3.48c.43 0 .859.0464 1.28.135333.398.0812.777.235866 1.118.456266.324.21653.587.5104.773.85066.209.40213.313.85453.298 1.3108.015.5568-.163 1.10199-.503 1.54666-.36.43693-.847.75013-1.392.90093l2.382 3.89758zm-.089-6.30265c.008-.18173-.038-.36346-.135-.522-.089-.13146-.209-.23586-.348-.30546-.151-.07734-.313-.1276-.48-.1508-.17-.0232-.34-.03867-.51-.03867h-1.16v2.12279h1.048c.186 0 .371-.01546.553-.04253s.356-.0812.518-.1624c.34-.16626.545-.522.514-.90093z"/><path d="m183.07 5.93377v3.86666h-2.2v-3.86666l-3.418-5.250909h2.664l1.933 3.371719 1.933-3.371719h2.572z"/><path d="m193.03 2.56205v1.8792h3.522v1.81346h-3.522v3.53799h-2.177v-9.109839h5.997v1.879189z"/><path d="m205.832 7.8555c-.17.43693-.437.83133-.773 1.16-.36.33253-.781.58773-1.241.75013-1.048.35957-2.189.35957-3.237 0-.456-.1624-.87-.4176-1.221-.75013-.337-.32867-.604-.72307-.774-1.16-.185-.4756-.274-.98599-.27-1.49639v-5.676249h2.188v5.513849c0 .23973.031.47946.097.7076.062.21653.162.42146.297.59933.14.174.321.30933.526.39826.244.10827.507.15853.774.15467.266.00386.529-.05027.773-.15467.209-.09666.39-.23973.534-.4176.139-.17786.239-.3828.297-.59933.058-.232.089-.46786.089-.7076v-5.494509h2.2v5.676249c.012.5104-.077 1.02079-.259 1.49639z"/><path d="m213.883 9.7927-3.666-5.95852h-.039l.051 5.95852h-2.135v-9.109839h2.51l3.654 5.943049h.038l-.054-5.943049h2.138v9.109839z"/><path d="m226.944 5.21071c.019.71533-.131 1.42293-.445 2.06866-.274.5568-.672 1.044-1.16 1.4268-.491.37506-1.047.65346-1.643.82359-.603.174-1.226.26294-1.852.26294h-3.406v-9.109839h3.294c.642 0 1.28.077333 1.902.224266.6.139203 1.168.390533 1.674.746263.499.36347.905.84293 1.184 1.39586.321.6728.475 1.4152.452 2.16146zm-2.289 0c.015-.4408-.073-.87773-.251-1.27986-.155-.32093-.383-.59933-.669-.80813-.286-.20493-.611-.35187-.951-.43307-.36-.08506-.731-.1276-1.102-.1276h-1.095v5.32825h1.044c.383 0 .766-.05413 1.137-.14693.348-.08507.677-.23587.967-.44467.286-.21653.518-.49879.669-.82359.178-.39827.263-.83133.251-1.2644z"/></g></svg>

<svg xmlns="http://www.w3.org/2000/svg" width="227" height="11" viewBox="0 0 227 11" fill="none">
  <path d="M0.480469 9.7927V0.682861H2.68057V9.7927H0.480469Z" fill="white"/>
  <path d="M10.5417 9.7927L6.87619 3.83418H6.83752L6.88779 9.7927H4.75342V0.682861H7.26285L10.9168 6.62591H10.9555L10.9013 0.682861H13.0396V9.7927H10.5417Z" fill="white"/>
  <path d="M18.9204 2.56205V9.7927H16.728V2.56205H14.1528V0.682861H21.4994V2.56205H18.9204Z" fill="white"/>
  <path d="M22.624 9.7927V0.682861H28.7487V2.53499H24.7468V4.26338H28.5283V6.02658H24.7468V7.91737H28.973V9.7927H22.624Z" fill="white"/>
  <path d="M35.5696 9.7927L33.5899 6.19671H32.8398V9.7927H30.6938V0.682861H34.1738C34.603 0.682861 35.0322 0.729261 35.4536 0.818194C35.8519 0.899394 36.2308 1.05406 36.575 1.27446C36.8959 1.49099 37.1627 1.78486 37.3483 2.12512C37.5571 2.52725 37.6615 2.97965 37.646 3.43592C37.6615 3.99272 37.4836 4.53791 37.1434 4.98258C36.7838 5.41951 36.3004 5.73271 35.7552 5.88351L38.1409 9.7927H35.5696ZM35.4768 3.49005C35.4846 3.30445 35.4382 3.12272 35.3415 2.96805C35.2564 2.83659 35.1327 2.73219 34.9935 2.66259C34.8427 2.58525 34.6803 2.53499 34.5141 2.51179C34.3439 2.48859 34.1738 2.47312 34.0037 2.47312H32.8398V4.59591H33.8877C34.0733 4.59591 34.2589 4.58045 34.4445 4.55338C34.6223 4.52631 34.7963 4.47218 34.9587 4.39098C35.1134 4.31365 35.2448 4.20152 35.3454 4.05845C35.4459 3.88832 35.4923 3.68725 35.4768 3.49005Z" fill="white"/>
  <path d="M45.1589 9.7927L41.4895 3.83418H41.4508L41.5049 9.7927H39.3667V0.682861H41.8761L45.5301 6.62591H45.5687L45.5185 0.682861H47.6528V9.7927H45.1589Z" fill="white"/>
  <path d="M55.9467 9.7927L55.2391 8.00244H51.7127L51.0438 9.7927H48.6504L52.4745 0.682861H54.6088L58.3904 9.7927H55.9467ZM53.503 3.10339L52.343 6.23151H54.6359L53.503 3.10339Z" fill="white"/>
  <path d="M62.4081 2.56205V9.7927H60.208V2.56205H57.6367V0.682861H64.9833V2.56205H62.4081Z" fill="white"/>
  <path d="M66.0933 9.7927V0.682861H68.3088V9.7927H66.0933Z" fill="white"/>
  <path d="M79.8465 5.19914C79.8465 5.8758 79.7189 6.5486 79.4598 7.175C79.224 7.75499 78.8721 8.28473 78.4236 8.72166C77.9712 9.14312 77.4415 9.46406 76.8615 9.67672C75.5855 10.1407 74.1819 10.1407 72.9059 9.67672C72.3221 9.46019 71.7885 9.12379 71.3361 8.69459C70.8876 8.25766 70.5357 7.73179 70.2998 7.14793C70.0408 6.52153 69.9093 5.84874 69.9132 5.17207C69.9093 4.49541 70.0408 3.82261 70.2998 3.19621C70.5357 2.62781 70.8876 2.11742 71.3361 1.69982C71.7923 1.28995 72.3259 0.98062 72.9059 0.78342C74.1858 0.334889 75.5816 0.334889 76.8615 0.78342C77.4453 0.988353 77.9828 1.31315 78.439 1.73462C78.8837 2.15608 79.2394 2.66648 79.4753 3.23101C79.7305 3.85741 79.8542 4.52634 79.8465 5.19914ZM77.4917 5.19914C77.4956 4.82021 77.4299 4.44514 77.2984 4.09328C77.1824 3.76848 77.0007 3.46688 76.7648 3.21168C76.5328 2.96421 76.2505 2.76701 75.9412 2.63168C75.6048 2.48861 75.2452 2.41515 74.8818 2.41901C74.1742 2.40355 73.4936 2.68195 73.0026 3.19234C72.7629 3.44368 72.5811 3.74528 72.469 4.07394C72.3453 4.42967 72.2795 4.80474 72.2834 5.1798C72.2795 5.57034 72.3453 5.957 72.4767 6.32047C72.5927 6.64913 72.7745 6.9546 73.0103 7.21366C73.2346 7.47273 73.513 7.67766 73.8262 7.81686C74.5028 8.09913 75.2607 8.09913 75.9373 7.81686C76.2505 7.68153 76.5289 7.48046 76.7609 7.233C77.0007 6.97393 77.1863 6.67233 77.3061 6.3398C77.4376 5.97247 77.4995 5.5858 77.4917 5.19914Z" fill="white"/>
  <path d="M87.236 9.7927L83.5666 3.83418H83.5279L83.5821 9.7927H81.4438V0.682861H83.9533L87.6072 6.62591H87.6459L87.5956 0.682861H89.73V9.7927H87.236Z" fill="white"/>
  <path d="M98.0233 9.7927L97.3158 8.00244H93.7894L93.1205 9.7927H90.7271L94.5511 0.682861H96.6855L100.467 9.7927H98.0233ZM95.5796 3.10339L94.4197 6.23151H96.7087L95.5796 3.10339Z" fill="white"/>
  <path d="M101.465 9.79269V0.682861H103.68V7.87483H107.203V9.80816L101.465 9.79269Z" fill="white"/>
  <path d="M120.098 9.7927L120.149 3.34699H120.11L117.744 9.7927H116.197L113.896 3.34699H113.858L113.908 9.7927H111.835V0.682861H114.967L117.04 6.52537H117.09L119.066 0.682861H122.244V9.7927H120.098Z" fill="white"/>
  <path d="M133.786 5.19914C133.786 5.8758 133.659 6.5486 133.4 7.175C133.164 7.75499 132.812 8.28473 132.364 8.72166C131.911 9.14312 131.381 9.46406 130.801 9.67672C129.525 10.1407 128.122 10.1407 126.846 9.67672C126.262 9.46019 125.728 9.12379 125.276 8.69459C124.827 8.25766 124.476 7.72793 124.24 7.14793C123.981 6.52153 123.849 5.84874 123.853 5.17207C123.849 4.49541 123.981 3.82261 124.24 3.19621C124.476 2.63168 124.827 2.12128 125.276 1.69982C125.732 1.28995 126.266 0.98062 126.846 0.78342C128.126 0.334889 129.522 0.334889 130.801 0.78342C131.385 0.988353 131.923 1.31315 132.379 1.73462C132.824 2.15608 133.179 2.66648 133.415 3.23101C133.67 3.85741 133.794 4.52634 133.786 5.19914ZM131.432 5.19914C131.436 4.82021 131.37 4.44514 131.238 4.09328C131.122 3.76848 130.941 3.46688 130.705 3.21168C130.473 2.96421 130.19 2.76701 129.881 2.63168C129.545 2.48861 129.185 2.41515 128.822 2.41901C128.114 2.40355 127.434 2.68195 126.943 3.19234C126.703 3.45141 126.525 3.75688 126.413 4.09328C126.285 4.44901 126.223 4.82407 126.227 5.19914C126.223 5.58967 126.289 5.97633 126.421 6.3398C126.537 6.66847 126.718 6.97393 126.954 7.233C127.182 7.48433 127.461 7.68153 127.77 7.81686C128.447 8.09913 129.204 8.09913 129.881 7.81686C130.194 7.68153 130.473 7.48046 130.705 7.233C130.941 6.97393 131.126 6.67233 131.242 6.3398C131.378 5.97633 131.443 5.58967 131.439 5.19914H131.432Z" fill="white"/>
  <path d="M141.175 9.7927L137.506 3.83418H137.467L137.521 9.7927H135.383V0.682861H137.892L141.546 6.62591H141.585L141.535 0.682861H143.669V9.7927H141.175Z" fill="white"/>
  <path d="M145.745 9.7927V0.682861H151.854V2.53499H147.852V4.26338H151.634V6.02658H147.852V7.91737H152.086V9.7927H145.745Z" fill="white"/>
  <path d="M157.651 2.56205V9.7927H155.451V2.56205H152.879V0.682861H160.226V2.56205H157.651Z" fill="white"/>
  <path d="M166.772 9.7927L166.064 8.00244H162.538L161.869 9.7927H159.476L163.3 0.682861H165.434L169.216 9.7927H166.772ZM164.328 3.10339L163.168 6.23151H165.465L164.328 3.10339Z" fill="white"/>
  <path d="M175.089 9.7927L173.113 6.19671H172.363V9.7927H170.213V0.682861H173.693C174.123 0.682861 174.552 0.729261 174.973 0.818194C175.371 0.899394 175.75 1.05406 176.091 1.27446C176.415 1.49099 176.678 1.78486 176.864 2.12512C177.073 2.52725 177.177 2.97965 177.162 3.43592C177.177 3.99272 176.999 4.53791 176.659 4.98258C176.299 5.41951 175.812 5.73271 175.267 5.88351L177.649 9.78109L175.089 9.7927ZM175 3.49005C175.008 3.30832 174.962 3.12659 174.865 2.96805C174.776 2.83659 174.656 2.73219 174.517 2.66259C174.366 2.58525 174.204 2.53499 174.037 2.51179C173.867 2.48859 173.697 2.47312 173.527 2.47312H172.367V4.59591H173.415C173.601 4.59591 173.786 4.58045 173.968 4.55338C174.15 4.52631 174.324 4.47218 174.486 4.39098C174.826 4.22472 175.031 3.86898 175 3.49005Z" fill="white"/>
  <path d="M183.07 5.93377V9.80043H180.87V5.93377L177.452 0.682861H180.116L182.049 4.05458L183.982 0.682861H186.554L183.07 5.93377Z" fill="white"/>
  <path d="M193.03 2.56205V4.44125H196.552V6.25471H193.03V9.7927H190.853V0.682861H196.85V2.56205H193.03Z" fill="white"/>
  <path d="M205.832 7.8555C205.662 8.29243 205.395 8.68683 205.059 9.0155C204.699 9.34803 204.278 9.60323 203.818 9.76563C202.77 10.1252 201.629 10.1252 200.581 9.76563C200.125 9.60323 199.711 9.34803 199.36 9.0155C199.023 8.68683 198.756 8.29243 198.586 7.8555C198.401 7.3799 198.312 6.86951 198.316 6.35911V0.682861H200.504V6.19671C200.504 6.43644 200.535 6.67617 200.601 6.90431C200.663 7.12084 200.763 7.32577 200.898 7.50364C201.038 7.67764 201.219 7.81297 201.424 7.9019C201.668 8.01017 201.931 8.06043 202.198 8.05657C202.464 8.06043 202.727 8.0063 202.971 7.9019C203.18 7.80524 203.361 7.66217 203.505 7.4843C203.644 7.30644 203.744 7.1015 203.802 6.88497C203.86 6.65297 203.891 6.41711 203.891 6.17737V0.682861H206.091V6.35911C206.103 6.86951 206.014 7.3799 205.832 7.8555Z" fill="white"/>
  <path d="M213.883 9.7927L210.217 3.83418H210.178L210.229 9.7927H208.094V0.682861H210.604L214.258 6.62591H214.296L214.242 0.682861H216.38V9.7927H213.883Z" fill="white"/>
  <path d="M226.944 5.21071C226.963 5.92604 226.813 6.63364 226.499 7.27937C226.225 7.83617 225.827 8.32337 225.339 8.70617C224.848 9.08123 224.292 9.35963 223.696 9.52976C223.093 9.70376 222.47 9.7927 221.844 9.7927H218.438V0.682861H221.732C222.374 0.682861 223.012 0.760194 223.634 0.907127C224.234 1.04633 224.802 1.29766 225.308 1.65339C225.807 2.01686 226.213 2.49632 226.492 3.04925C226.813 3.72205 226.967 4.46445 226.944 5.21071ZM224.655 5.21071C224.67 4.76991 224.582 4.33298 224.404 3.93085C224.249 3.60992 224.021 3.33152 223.735 3.12272C223.449 2.91779 223.124 2.77085 222.784 2.68965C222.424 2.60459 222.053 2.56205 221.682 2.56205H220.587V7.8903H221.631C222.014 7.8903 222.397 7.83617 222.768 7.74337C223.116 7.6583 223.445 7.5075 223.735 7.2987C224.021 7.08217 224.253 6.79991 224.404 6.47511C224.582 6.07684 224.667 5.64378 224.655 5.21071Z" fill="white"/>
</svg>
